src/components/class-icon/images/Bard.svg

<?xml version="1.0" encoding="UTF-8"?>
<svg width="30px" height="100px" viewBox="0 0 30 100" version="1.1" xmlns="http://www.w3.org/2000/svg" xmlns:xlink="http://www.w3.org/1999/xlink">
    <!-- Generator: Sketch 53.2 (72643) - https://sketchapp.com -->
    <title>ClassIcon/Bard</title>
    <desc>Created with Sketch.</desc>
    <g id="ClassIcon/Bard" stroke="none" stroke-width="1" fill="none" fill-rule="evenodd">
        <g fill="#00040C" fill-rule="nonzero" id="Bard">
            <path d="M12.82,0.92 C13.56,0.64 14.24,0.22 15,0 C15.75,0.22 16.44,0.64 17.17,0.92 C17.9,1.2 18.55,2.07 19.17,2.65 C19.57,2.93 19.47,3.45 19.51,3.87 C20.38,4.14 20.91,3.54 21.34,2.87 C21.5725121,3.26306376 21.747618,3.68735877 21.86,4.13 C21.6172173,4.68897921 21.3296126,5.22740195 21,5.74 C20.7920724,5.66967727 20.6260936,5.5106765 20.5469105,5.30595915 C20.4677274,5.10124179 20.4835122,4.87193622 20.59,4.68 C20.2572653,4.65174857 19.9227347,4.65174857 19.59,4.68 C19.59,5.26 19.59,5.84 19.65,6.41 C20.2227991,6.44500185 20.7972009,6.44500185 21.37,6.41 C21.69,6.14 21.86,5.72 22.2,5.47 C22.36,5.98 22.94,6.56 22.53,7.08 C22.3081676,7.49915203 22.0644995,7.90637827 21.8,8.3 C21.5938476,8.22751213 21.4302749,8.06761377 21.353123,7.86316113 C21.2759711,7.6587085 21.2931297,7.43060965 21.4,7.24 C20.8242115,7.19499313 20.2457885,7.19499313 19.67,7.24 C19.67,7.91 19.67,8.59 19.75,9.24 C20.48,9.43 20.67,8.6 21.14,8.24 C21.3,8.76 21.88,9.33 21.46,9.86 C21.22,10.26 21.01,10.69 20.74,11.07 C20.25,10.9 20.18,10.46 20.33,10.01 L19.77,10.01 C19.77,10.69 19.77,11.37 19.84,12.01 C20.66,12.28 21.07,11.57 21.49,11.01 C21.7256518,11.4110562 21.8976953,11.8462252 22,12.3 C21.746996,12.8552594 21.4458453,13.3872923 21.1,13.89 C20.8954948,13.8123984 20.7343398,13.650447 20.6577472,13.4455618 C20.5811546,13.2406766 20.5965513,13.0127245 20.7,12.82 C20.4135292,12.805012 20.1264708,12.805012 19.84,12.82 C19.84,13.38 20.03,14.01 19.69,14.51 C19.05,15.51 18.43,16.62 17.79,17.67 C17.6297049,18.069731 17.5880415,18.5071973 17.67,18.93 C18.0966667,30.9766667 18.5166667,43.0633333 18.93,55.19 C18.93,55.71 19.34,56.09 19.58,56.51 C21.25,59.13 22.99,61.72 24.58,64.37 C25.9133333,67.89 27.2,71.42 28.44,74.96 C29,77.83 29.53,80.72 30,83.6 C29.75,86.15 29.45,88.7 29.09,91.23 C28.09,93.36 26.89,95.43 25.83,97.55 C25.63,98.05 25.07,98.16 24.64,98.4 C23.9787915,98.7997646 23.2605572,99.0964999 22.51,99.28 C21.01,99.5 19.51,99.8 18.01,99.98 C16.01,99.98 14.01,99.98 12.01,99.98 C10.53,99.81 9.01,99.51 7.58,99.29 C6.77708932,99.1128201 6.00971158,98.8018124 5.31,98.37 C4.93,98.15 4.42,98.05 4.22,97.61 C3.33,95.87 2.4,94.14 1.5,92.39 C1.16052487,91.8909475 0.932051848,91.32488 0.83,90.73 C0.58,88.32 0.2,85.92 0.02,83.51 C0.51,80.65 1.02,77.8 1.54,74.96 C2.8,71.42 4.08666667,67.89 5.4,64.37 C7.02,61.74 8.74,59.17 10.4,56.57 C10.68,56.1 11.13,55.67 11.1,55.09 C11.51,42.74 11.96,30.39 12.36,18.09 C11.7618769,16.8887057 11.0940721,15.7233865 10.36,14.6 C9.97,14.08 10.2,13.42 10.17,12.84 C9.88353213,12.8249018 9.59646787,12.8249018 9.31,12.84 C9.41299366,13.0340308 9.42699452,13.2631349 9.34839399,13.4682631 C9.26979346,13.6733913 9.10628088,13.8344763 8.9,13.91 C8.55938421,13.4005534 8.25849513,12.8656395 8,12.31 C8.12230395,11.8833348 8.28992537,11.4709861 8.5,11.08 C8.99,11.56 9.34,12.33 10.18,12.08 C10.23,11.4 10.25,10.72 10.26,10.08 L9.7,10.08 C9.80287681,10.2725532 9.81674812,10.5003754 9.73799246,10.7039876 C9.65923679,10.9075999 9.49567164,11.066791 9.29,11.14 C8.94942627,10.6340144 8.64852761,10.1024268 8.39,9.55 C8.50879689,9.12042585 8.6730587,8.70474289 8.88,8.31 C9.36,8.65 9.54,9.48 10.27,9.31 C10.27,8.63 10.34,7.95 10.35,7.31 C9.77754546,7.26510705 9.20245454,7.26510705 8.63,7.31 C8.73287681,7.50255323 8.74674812,7.73037544 8.66799246,7.93398765 C8.58923679,8.13759985 8.42567164,8.29679098 8.22,8.37 C7.88101572,7.86482209 7.58338166,7.33309384 7.33,6.78 C7.44879689,6.35042585 7.6130587,5.93474289 7.82,5.54 C8.16,5.79 8.33,6.21 8.66,6.48 C9.22946137,6.51504386 9.80053863,6.51504386 10.37,6.48 C10.37,5.91 10.43,5.33 10.44,4.75 C10.1072474,4.72217383 9.77275261,4.72217383 9.44,4.75 C9.51754347,4.93927718 9.51441609,5.15201392 9.43134232,5.33892992 C9.34826854,5.52584592 9.19245653,5.67072282 9,5.74 C8.65783389,5.23500065 8.35686245,4.70328444 8.1,4.15 C8.21788122,3.71863002 8.38568197,3.30248417 8.6,2.91 C8.94,3.16 9.11,3.58 9.43,3.84 C9.76194508,3.88302334 10.0980549,3.88302334 10.43,3.84 C10.43,3.42 10.43,2.9 10.77,2.62 C11.45,2.04 11.94,1.19 12.77,0.89 M14.31,71.59 C12.6244152,71.7911982 11.1372009,72.7876318 10.31,74.27 C9.10646997,76.4170838 9.53295294,79.109431 11.3411325,80.7794431 C13.149312,82.4494551 15.8670054,82.6610299 17.9118564,81.2909797 C19.9567075,79.9209295 20.7947298,77.3270252 19.9379913,75.0195476 C19.0812528,72.7120701 16.7534797,71.2935873 14.31,71.59 M4.7,78.34 C4.56462236,79.6906146 4.81059626,81.0521321 5.41,82.27 C6.73,83.97 8.75,85.18 9.51,87.27 C9.71958166,88.2450829 9.5853197,89.2626472 9.13,90.15 C8.4920945,90.883465 7.4539383,91.1217965 6.56,90.74 C6.57139774,90.4459501 6.52027187,90.1528284 6.41,89.88 C5.9,89.62 5.02,89.79 4.95,90.45 C5.13306751,91.3146146 5.9289449,91.9093832 6.81,91.84 C8.38162969,91.9912584 9.84959476,91.0374958 10.35,89.54 C10.5751205,88.1635571 10.3209589,86.7515486 9.63,85.54 C8.57,84.12 6.87,83.31 5.88,81.82 C4.60321124,79.771154 4.7637366,77.138538 6.28,75.26 C6.28,75.42 6.28,75.58 6.35,75.75 C6.54,75.35 6.73,74.96 6.88,74.55 C5.52034227,75.339731 4.68832223,76.7976744 4.7,78.37 M23.21,74.55 C23.361887,74.9604919 23.5388881,75.3612491 23.74,75.75 C23.74,75.59 23.79,75.42 23.81,75.26 C24.6617887,76.367405 25.0844376,77.7454535 25,79.14 C25.1423237,80.1746986 24.8243994,81.219829 24.13,82 C23.13,83.43 21.47,84.2 20.47,85.62 C19.7981263,86.8382845 19.5584519,88.2481338 19.79,89.62 C20.2904052,91.1174958 21.7583703,92.0712584 23.33,91.92 C24.2428648,91.993003 25.0560738,91.3459335 25.19,90.44 C24.9412981,89.9102321 24.313118,89.6785629 23.78,89.92 C23.54,90.14 23.63,90.52 23.58,90.82 C22.58,91.14 21.26,91 20.84,89.92 C20.3516681,88.7872497 20.4372349,87.4888671 21.07,86.43 C22.07,84.81 23.65,83.76 24.77,82.28 C25.3481918,81.0309354 25.5796162,79.6492975 25.44,78.28 C25.4162455,76.7434283 24.5889439,75.3317026 23.26,74.56 M9.48,94.28 C9.48,95.05 9.48,95.82 9.48,96.6 C13.1333333,96.6 16.7766667,96.6 20.41,96.6 C20.41,95.82 20.41,95.05 20.41,94.28 C16.77,94.28 13.1266667,94.28 9.48,94.28"></path>
        </g>
    </g>
</svg>

<svg viewBox="0 0 30 100" xmlns="http://www.w3.org/2000/svg"><path d="M12.82.92C13.56.64 14.24.22 15 0c.75.22 1.44.64 2.17.92s1.38 1.15 2 1.73c.4.28.3.8.34 1.22.87.27 1.4-.33 1.83-1 .233.393.408.817.52 1.26A11.3 11.3 0 0 1 21 5.74a.74.74 0 0 1-.41-1.06 5.91 5.91 0 0 0-1 0c0 .58 0 1.16.06 1.73a14.1 14.1 0 0 0 1.72 0c.32-.27.49-.69.83-.94.16.51.74 1.09.33 1.61-.222.42-.466.826-.73 1.22a.74.74 0 0 1-.4-1.06 11.1 11.1 0 0 0-1.73 0c0 .67 0 1.35.08 2 .73.19.92-.64 1.39-1 .16.52.74 1.09.32 1.62-.24.4-.45.83-.72 1.21-.49-.17-.56-.61-.41-1.06h-.56c0 .68 0 1.36.07 2 .82.27 1.23-.44 1.65-1A4.5 4.5 0 0 1 22 12.3a10.45 10.45 0 0 1-.9 1.59.76.76 0 0 1-.4-1.07 8.23 8.23 0 0 0-.86 0c0 .56.19 1.19-.15 1.69-.64 1-1.26 2.11-1.9 3.16-.16.4-.202.837-.12 1.26.427 12.047.847 24.133 1.26 36.26 0 .52.41.9.65 1.32 1.67 2.62 3.41 5.21 5 7.86 1.333 3.52 2.62 7.05 3.86 10.59.56 2.87 1.09 5.76 1.56 8.64-.25 2.55-.55 5.1-.91 7.63-1 2.13-2.2 4.2-3.26 6.32-.2.5-.76.61-1.19.85a7.61 7.61 0 0 1-2.13.88c-1.5.22-3 .52-4.5.7h-6c-1.48-.17-3-.47-4.43-.69a7.33 7.33 0 0 1-2.27-.92c-.38-.22-.89-.32-1.09-.76-.89-1.74-1.82-3.47-2.72-5.22a4.22 4.22 0 0 1-.67-1.66C.58 88.32.2 85.92.02 83.51c.49-2.86 1-5.71 1.52-8.55 1.26-3.54 2.547-7.07 3.86-10.59 1.62-2.63 3.34-5.2 5-7.8.28-.47.73-.9.7-1.48.41-12.35.86-24.7 1.26-37a34.45 34.45 0 0 0-2-3.49c-.39-.52-.16-1.18-.19-1.76a8.17 8.17 0 0 0-.86 0 .76.76 0 0 1-.41 1.07 11.94 11.94 0 0 1-.9-1.6 6.22 6.22 0 0 1 .5-1.23c.49.48.84 1.25 1.68 1 .05-.68.07-1.36.08-2H9.7a.75.75 0 0 1-.41 1.06 11.82 11.82 0 0 1-.9-1.59 6.27 6.27 0 0 1 .49-1.24c.48.34.66 1.17 1.39 1 0-.68.07-1.36.08-2a11 11 0 0 0-1.72 0 .75.75 0 0 1-.41 1.06 11.3 11.3 0 0 1-.89-1.59 6.27 6.27 0 0 1 .49-1.24c.34.25.51.67.84.94.57.035 1.14.035 1.71 0 0-.57.06-1.15.07-1.73a6 6 0 0 0-1 0 .75.75 0 0 1-.44.99 11.37 11.37 0 0 1-.9-1.59 5.75 5.75 0 0 1 .5-1.24c.34.25.51.67.83.93a3.89 3.89 0 0 0 1 0c0-.42 0-.94.34-1.22.68-.58 1.17-1.43 2-1.73m1.54 70.7a5.32 5.32 0 1 0 5.628 3.43 5.32 5.32 0 0 0-5.628-3.43M4.7 78.34a7.26 7.26 0 0 0 .71 3.93c1.32 1.7 3.34 2.91 4.1 5a4.32 4.32 0 0 1-.38 2.88 2.24 2.24 0 0 1-2.57.59 2.08 2.08 0 0 0-.15-.86c-.51-.26-1.39-.09-1.46.57a1.76 1.76 0 0 0 1.86 1.39 3.39 3.39 0 0 0 3.54-2.3 6.09 6.09 0 0 0-.72-4c-1.06-1.42-2.76-2.23-3.75-3.72a5.67 5.67 0 0 1 .4-6.56c0 .16 0 .32.07.49.19-.4.38-.79.53-1.2a4.38 4.38 0 0 0-2.18 3.82m18.51-3.82c.152.41.329.811.53 1.2 0-.16.05-.33.07-.49A5.79 5.79 0 0 1 25 79.14a3.57 3.57 0 0 1-.87 2.86c-1 1.43-2.66 2.2-3.66 3.62a6.16 6.16 0 0 0-.68 4 3.39 3.39 0 0 0 3.54 2.3 1.74 1.74 0 0 0 1.86-1.48 1.07 1.07 0 0 0-1.41-.52c-.24.22-.15.6-.2.9-1 .32-2.32.18-2.74-.9a3.84 3.84 0 0 1 .23-3.49c1-1.62 2.58-2.67 3.7-4.15a7.67 7.67 0 0 0 .67-4 4.38 4.38 0 0 0-2.18-3.72M9.48 94.28v2.32h10.93v-2.32H9.48" fill="#00040C" fill-rule="nonzero"/></svg>
